!!!COM:	la Rue, Pierre de
!!!CDT:	~1452///-1518/11/20
!!!OPR:	Missa Tous les regretz
!!!ONM:	2
!!!OTL:	Gloria
!!!AGN:	Mass; Gloria
!!!SCT:	Rue1031b
!!!SCA:	Rue1031b
!!!voices-OPR:	4
!!!voices:	4
**kern	**kern	**kern	**kern
*staff4	*staff3	*staff2	*staff1
*Ivox	*Ivox	*Ivox	*Ivox
*I"Bassus	*I"Tenor	*I"Contra	*I"Discantus
*I'B	*I'T	*I'C	*I'D
*>[A,B]	*>[A,B]	*>[A,B]	*>[A,B]
*>A	*>A	*>A	*>A
*clefF4	*clefGv2	*clefGv2	*clefG2
*k[]	*k[]	*k[]	*k[]
*M2/1	*M2/1	*M2/1	*M2/1
*met(C2)	*met(C2)	*met(C2)	*met(C2)
!!section: Et in terra pax
!!!OMD: Et in terra pax
=1-	=1-	=1-	=1-
0r	0r	1d	0r
.	.	2d\	.
.	.	[2d\	.
=2.	=2.	=2.	=2.
0r	0r	2d\]	1r
.	.	4c\	.
.	.	4B\	.
.	.	2d\	1a
.	.	2c\	.
=3	=3	=3	=3
0r	0r	4c\	2a/
.	.	4B\	.
.	.	4A/	1a
.	.	4G/	.
.	.	1F	.
.	.	.	4g/
.	.	.	4f/
=4.	=4.	=4.	=4.
0r	0r	1c	2a/
.	.	.	2g/
.	.	2c\	4g/
.	.	.	4f/
.	.	2c\	4e/
.	.	.	4d/
=5	=5	=5	=5
1r	0r	2.A/	1c
.	.	8G/L	.
.	.	8F/J	.
1D	.	2B-i\	2r
.	.	[2A/	2f/
=6.	=6.	=6.	=6.
2D\	0r	4A/]	2f/
.	.	4G/	.
1D	.	4F/	1f
.	.	4E/	.
.	.	1D	.
4C/	.	.	4e/
4BB/	.	.	4d/
=7	=7	=7	=7
2D\	0A	1r	2f/
2.C/	.	.	2.e/
.	.	1A	.
4BB/	.	.	4d/
4AA/	.	.	4c/
4GG/	.	.	4B/
=8.	=8.	=8.	=8.
0FF	1A	1c	1A
.	2A/	2c\	2r
.	4G/	2c\	2cc\
.	4F/	.	.
=9	=9	=9	=9
2r	2A/	1e	2cc\
2C/	2G/	.	2cc\
1C	4G/	2e\	[1cc
.	4F/	.	.
.	4E/	[2c\	.
.	4D/	.	.
=10.	=10.	=10.	=10.
2AA/	2C/	4c\]	1cc]
.	.	4B\	.
2FF/	1F	2A/	.
1GG	.	1G	1b
.	2E/	.	.
=11	=11	=11	=11
0FF	1F	0A	1a
.	1c	.	2r
.	.	.	2a/
=12.	=12.	=12.	=12.
1r	1c	2r	2a/
.	.	2A/	2a/
2r	1c	2A/	1e
2AA/	.	2A/	.
=13	=13	=13	=13
2C/	0c	1E	2r
2C/	.	.	2e/
2C/	.	2r	2g/
2C/	.	2E/	2g/
=14.	=14.	=14.	=14.
2GG/	0B	2E/	2g/
2GG/	.	2G/	2g/
2BB/	.	2G/	2d/
2BB/	.	2G/	2d/
=15	=15	=15	=15
1D	1A	2D/	2f/
.	.	2D/	2f/
[1AA	1A	2F/	1a
.	.	2F/	.
=16.	=16.	=16.	=16.
0AA]	0c	1A	1e
.	.	2E/	2r
.	.	[2A/	[2cc\
=17	=17	=17	=17
0r	1c	2A/]	2cc\]
.	.	2G/	2b\
.	[1c	2F/	2a/
.	.	2E/	[2g/
=18.	=18.	=18.	=18.
0r	1c]	1A	2g/]
.	.	.	1f
.	1B	1G	.
.	.	.	2e/
=19	=19	=19	=19
1r	[0A	1F	1f
[1FF	.	[1c	[1f
=20.	=20.	=20.	=20.
2FF/]	0A]	2c\]	2f/]
2FF/	.	2c\	2f/
1FF	.	1c	1f
=21	=21	=21	=21
2C/	0r	2G/	1e
2AA/	.	2c\	.
2BB/	.	2B\	2d/
[2C/	.	2G/	[2e/
=22.	=22.	=22.	=22.
2C/]	0r	1c	2e/]
2AA/	.	.	2e/
2BB/	.	2B\	2d/
[2C/	.	2G/	[2e/
=23	=23	=23	=23
2C/]	0r	1c	2e/]
2AA/	.	.	4d/
.	.	.	4c/
2BB/	.	2B\	2d/
2C/	.	2G/	[2e/
=24.	=24.	=24.	=24.
1AA	0r	2c\	2e/]
.	.	2A/	2c/
1r	.	2B\	2d/
.	.	2c\	2e/
=25	=25	=25	=25
1r	0r	2d\	1f
.	.	2.A/	.
1AA	.	.	1c
.	.	4G/	.
.	.	[2c\	.
=26.	=26.	=26.	=26.
1D	0r	2c\]	1d
.	.	4B\	.
.	.	4A/	.
1D	.	1B	1d
=27	=27	=27	=27
0C	0r	1c	[0e
.	.	2.E/	.
.	.	4F/	.
=28.	=28.	=28.	=28.
1r	0r	2G/	0e]
.	.	2A/	.
1C	.	2A/	.
.	.	[2c\	.
=29	=29	=29	=29
1D	1r	2c\]	0r
.	.	1B	.
1C	1A	.	.
.	.	[2A/	.
=30.	=30.	=30.	=30.
0BB	1d	2A/]	0r
.	.	4G#i/	.
.	.	4F#i/	.
.	1d	1G#i	.
=31	=31	=31	=31
0AA	0c	0A	1r
.	.	.	2.e/
.	.	.	4f/
=32.	=32.	=32.	=32.
0r	1r	0r	2g/
.	.	.	1a
.	1c	.	.
.	.	.	[2cc\
=33	=33	=33	=33
0r	1d	0r	2cc\]
.	.	.	1b
.	1c	.	.
.	.	.	[2a/
=34.	=34.	=34.	=34.
0r	0B	1r	2a/]
.	.	.	4g#i/
.	.	.	4f#i/
.	.	1d	1g#
=35	=35	=35	=35
0r	1A	2f\	2a/
.	.	2f\	2cc\
.	2A/	1e	2cc\
.	2G/	.	2b\
=36.	=36.	=36.	=36.
0r	2A/	2r	2cc\
.	2F/	2f\	2a/
.	2G/	2d\	2b\
.	[2E/	[2e\	[2g/
=37	=37	=37	=37
2r	2E/]	2e\]	2g/]
2F\	2c\	2c\	2a/
2F\	2A/	2d\	2a/
2E\	2B\	2e\	2g/
=38.	=38.	=38.	=38.
2F\	2A/	2c\	2a/
2D\	2B\	2d\	2f/
2E\	1G	2B\	2g/
[2C/	.	[2c\	[2e/
=39	=39	=39	=39
2C/]	1A	2c\]	2e/]
2D\	.	2A/	2f/
2D\	2F/	2B\	2f/
2C/	2G/	2c\	2e/
=40.	=40.	=40.	=40.
2D\	2F/	2A/	2f/
2BB/	2G/	2B\	2d/
2C/	2E/	2G/	2e/
2AA/	[2F/	[2A/	2c/
=41	=41	=41	=41
1D	2F/]	2A/]	2A/
.	2D/	2A/	1d
1AA	1E	1A	.
.	.	.	2c#i/
=42.	=42.	=42.	=42.
2r	[0D	2r	1d
1BB	.	2d\	.
.	.	2d\	1r
2GG/	.	[2B\	.
=43	=43	=43	=43
1GG	0D_	2B\]	2r
.	.	4A/	1b
.	.	4G/	.
2GG/	.	1d	.
2FF/	.	.	2a/
=44.	=44.	=44.	=44.
2GG/	0D_	4d\	2b\
.	.	4c\	.
2FF/	.	4B\	1a
.	.	4A/	.
1GG	.	1B	.
.	.	.	2g/
=45	=45	=45	=45
2r	0D]	2A/	2a/
2GG/	.	1d	1b
2.BB/	.	.	.
.	.	4c\	[2g/
4C/	.	4B\	.
=46.	=46.	=46.	=46.
1D	0r	1A	2g/]
.	.	.	2f#i/
2r	.	1G	1g
2GG/	.	.	.
=47	=47	=47	=47
2.BB/	0r	1r	2r
.	.	.	2d/
4C/	.	.	.
1D	.	2r	2.f/
.	.	2A/	.
.	.	.	4g/
=48.	=48.	=48.	=48.
2r	0r	2c\	1a
2AA/	.	2c\	.
2.BB/	.	1d	2r
.	.	.	2d/
4C/	.	.	.
=49	=49	=49	=49
0D	0r	2r	2.f/
.	.	2D/	.
.	.	.	4g/
.	.	2.F/	2a/
.	.	.	2A/
.	.	4G/	.
=50.	=50.	=50.	=50.
0AA	0r	1A	2.c/
.	.	.	4d/
.	.	2r	1e
.	.	2A/	.
=51	=51	=51	=51
2r	[0A	2.c\	2r
2FF/	.	.	2A/
.	.	4B\	.
2.AA/	.	2A/	2.c/
.	.	4G/	.
4BB/	.	4F/	4d/
=52.	=52.	=52.	=52.
2C/	0A_	2E/	2e/
2D\	.	2F/	2A/
2.AA/	.	2E/	2.c/
.	.	2F/	.
4BB/	.	.	4d/
=53	=53	=53	=53
2C/	0A_	2E/	2e/
2D\	.	2D/	2f/
2E\	.	2C/	2g/
[2F\	.	[2c\	[2a/
=54.	=54.	=54.	=54.
4F\]	0A]	2c\]	2a/]
4E\	.	.	.
4D\	.	2.d\	1g
4C/	.	.	.
1D	.	.	.
.	.	4c\	.
.	.	4B\	2f#i/
.	.	4A/	.
=55	=55	=55	=55
1GG	[0G	1B	0g
2r	.	2r	.
2GG/	.	[2d\	.
=56.	=56.	=56.	=56.
2GG/	0G]	2d\]	2r
2GG/	.	2d\	1g
1C	.	2e\	.
.	.	[2c\	2g/
=57	=57	=57	=57
2C/	0c	4c\]	2g/
.	.	4B\	.
2BB/	.	1G	2g/
1AA	.	.	1a
.	.	2F#i/	.
=58.	=58.	=58.	=58.
0GG	0B	0G	1b
.	.	.	1g
=59	=59	=59	=59
0r	1r	2.c\	2r
.	.	.	2a/
.	.	4F/	.
.	1A	1F	2a/
.	.	.	2a/
=60.	=60.	=60.	=60.
2r	1.A	2r	1cc
2C/	.	2E/	.
2D\	.	2F/	1b
2E\	2G/	[2E/	.
=61	=61	=61	=61
2AA/	1c	2E/]	2r
2C/	.	2e\	1a
2D\	1B	2f\	.
2E\	.	[2e\	2g/
=62.	=62.	=62.	=62.
2AA/	2r	1e]	2a/
2C/	2A/	.	2e/
2D\	2A/	2d\	2f/
[2E\	2G/	2c\	[2g/
=63	=63	=63	=63
2E\]	1c	1e	2g/]
2C/	.	.	2e/
2D\	1B	2d\	2f/
2E\	.	2c\	2g/
=64.	=64.	=64.	=64.
2AA/	2r	2e\	2c/
2C/	2A/	1c	2e/
2D\	2A/	.	2f/
2E\	2G/	2B\	[2g/
=65	=65	=65	=65
2.C/	0c	1.e	2g/]
.	.	.	2c/
4BB/	.	.	.
1AA	.	.	2e/
.	.	2c\	2f/
=66.	=66.	=66.	=66.
[0GGl	[0Bl	[0dl	2g/
.	.	.	2a/
.	.	.	[1b
=67	=67	=67	=67
0GG_	0B_	0d_	1b]
.	.	.	1g
=68.	=68.	=68.	=68.
0GG]	0B]	0d]	0gl
!!LO:LB:i:g=z
=69||	=69||	=69||	=69||
*>B	*>B	*>B	*>B
*clefF4	*clefGv2	*clefGv2	*clefG2
*k[]	*k[]	*k[]	*k[]
*M2/1	*M2/1	*M2/1	*M2/1
*met(C2)	*met(C2)	*met(C2)	*met(C2)
!!section: Qui tollis
!!!OMD: Qui tollis
0AA	0A	1c	1e
.	.	1c	[1e
=70.	=70.	=70.	=70.
1AA	1A	4c\	2e/]
.	.	4B\	.
.	.	4A/	4f/
.	.	4G/	4g/
1AA	1A	2.F/	1a
.	.	4E/	.
=71	=71	=71	=71
1GG	1B	0G	1d
1GG	1B	.	[1d
=72.	=72.	=72.	=72.
1GG	1B	1G	2d/]
.	.	.	4e/
.	.	.	4f/
1GG	1B	1G	1g
=73	=73	=73	=73
[0AA	[0A	1E	1c
.	.	2E/	1c
.	.	[2F/	.
=74.	=74.	=74.	=74.
0AA]	0A]	2F/]	0c
.	.	4E/	.
.	.	4D/	.
.	.	1E	.
=75	=75	=75	=75
0D	0r	1D	1r
.	.	1d	1f
=76.	=76.	=76.	=76.
1r	0r	2d\	2f/
.	.	1d	1f
1D	.	.	.
.	.	4c\	4e/
.	.	4B\	4d/
=77	=77	=77	=77
2D\	1r	1A	1a
1D	.	.	.
.	1A	1r	1a
4C/	.	.	.
4BB/	.	.	.
=78.	=78.	=78.	=78.
0AA	2A/	1c	1r
.	1A	.	.
.	.	2c\	1a
.	4G/	[2c\	.
.	4F/	.	.
=79	=79	=79	=79
0r	[0c	2c\]	2a/
.	.	4B\	1a
.	.	4A/	.
.	.	1e	.
.	.	.	4g/
.	.	.	4f/
=80.	=80.	=80.	=80.
1AA	0c]	1.E	0cc
2AA/	.	.	.
[2AA/	.	2C/	.
=81	=81	=81	=81
2AA/]	1c	1C	1a
4GG/	.	.	.
4FF/	.	.	.
1C	1c	2.E/	1g
.	.	4F/	.
=82.	=82.	=82.	=82.
1r	1B	1G	2r
.	.	.	1g
1D	1A	1d	.
.	.	.	2f/
=83	=83	=83	=83
2E\	1G	2r	2g/
1D	.	1d	1a
.	2F/	.	.
2E\	2G/	2B\	[2g/
=84.	=84.	=84.	=84.
1D	1A	1d	2g/]
.	.	.	2f/
2E\	1G	2B\	2g/
2C/	.	2c\	[2a/
=85	=85	=85	=85
2D\	2F/	2A/	2a/]
2E\	2G/	2.c\	2g/
2C/	1A	.	2e/
.	.	4B\	.
[2D\	.	4A/	[2f/
.	.	4G/	.
=86.	=86.	=86.	=86.
2D\]	1F	2F/	2f/]
4C/	.	2A/	4e/
4BB/	.	.	4d/
1C	1r	1G	1e
=87	=87	=87	=87
1.FF	1.c	1F	1.A
.	.	[1F	.
2FF/	2c\	.	2A/
=88.	=88.	=88.	=88.
2FF/	0c	2F/]	1A
2FF/	.	2F/	.
2AA/	.	1C	1A
2AA/	.	.	.
=89	=89	=89	=89
1GG	1B	2r	1d
.	.	1G	.
1GG	1B	.	1d
.	.	2G/	.
=90.	=90.	=90.	=90.
0GG	1B	2G/	1d
.	.	2G/	.
.	1B	1G	1d
=91	=91	=91	=91
1AA	0A	1C	1c
1FF	.	1F	1c
=92.	=92.	=92.	=92.
0GG	0G	1D	1B
.	.	1d	2r
.	.	.	[2b\
=93	=93	=93	=93
0BB	0G	2d\	2b\]
.	.	1d	2b\
.	.	.	1b
.	.	2d\	.
=94.	=94.	=94.	=94.
0AA	0A	2c\	2.cc\
.	.	1F	.
.	.	.	4b\
.	.	.	2a/
.	.	4E/	4g/
.	.	4D/	4f/
=95	=95	=95	=95
2r	2r	1C	1e
2E\	2c\	.	.
2E\	2c\	1r	1r
[2D\	[2B\	.	.
=96.	=96.	=96.	=96.
2D\]	2B\]	0r	0r
2C/	1A	.	.
1BB	.	.	.
.	2G#i/	.	.
=97	=97	=97	=97
1AA	1A	2r	2r
.	.	2e\	2cc\
1r	1r	2e\	2cc\
.	.	[2d\	[2b\
=98.	=98.	=98.	=98.
0r	0r	2d\]	2b\]
.	.	2c\	1a
.	.	1B	.
.	.	.	2g#i/
=99	=99	=99	=99
2r	2r	1A	1a
2A\	2F/	.	.
2A\	2F/	1r	1r
[2G\	[2E/	.	.
=100.	=100.	=100.	=100.
2G\]	2E/]	0r	0r
2F\	1D	.	.
1E	.	.	.
.	2C#i/	.	.
=101	=101	=101	=101
1D	2D/	0r	2r
.	2A/	.	2f/
1r	2A/	.	2f/
.	[2G/	.	[2e/
=102.	=102.	=102.	=102.
1r	2G/]	1r	2e/]
.	2F/	.	1d
1AA	1E	1A	.
.	.	.	2c#i/
=103	=103	=103	=103
2BB-/	0D	2F/	0d
1BB-i	.	2F/	.
.	.	1F	.
2BB-i/	.	.	.
=104.	=104.	=104.	=104.
2BB-i/	1r	2F/	1r
2BB-i/	.	2F/	.
1AA	1A	1c	1e
=105	=105	=105	=105
0FF	2A/	1c	2f/
.	1A	.	1f
.	.	2r	.
.	2A/	2c\	2f/
=106.	=106.	=106.	=106.
1r	2A/	2c\	2f/
.	2A/	2c\	2f/
1AA	1A	2c\	1e
.	.	2c\	.
=107	=107	=107	=107
2C/	0E	0G	1c
2C/	.	.	.
2C/	.	.	2r
2C/	.	.	2e/
=108.	=108.	=108.	=108.
1GG	2r	1r	2g/
.	2E/	.	2g/
1r	2G/	1d	2g/
.	2G/	.	2g/
=109	=109	=109	=109
1D	2F/	1f	1d
.	2F/	.	.
[1F	1A	[1c	1r
=110.	=110.	=110.	=110.
1F]	2A/	1c]	1a
.	2.c\	.	.
2F\	.	1c	2cc\
.	4B\	.	.
[2F\	[2A/	.	[2cc\
=111	=111	=111	=111
2F\]	2A/]	1c	2cc\]
2FF/	1F	.	2cc\
1GG	.	2G/	2b\
.	2E/	2d\	2b\
=112.	=112.	=112.	=112.
2FF/	2F/	2r	2a/
1F	2c\	1f	1a
.	1c	.	.
2C/	.	2e\	2g/
=113	=113	=113	=113
1D	1A	1d	1f
1AA	1A	1c	1e
=114.	=114.	=114.	=114.
1r	1r	1r	1r
1AA	1A	1e	1e
=115	=115	=115	=115
1.E	0B	0e	1g
.	.	.	1g
2E\	.	.	.
=116.	=116.	=116.	=116.
1F	1A	1c	0a
1D	[1A	1d	.
=117	=117	=117	=117
1AA	1A]	1e	1a
2r	2r	1c	1e
2AA/	2A/	.	.
=118.	=118.	=118.	=118.
2C/	2G/	2r	2r
2C/	2G/	2c\	2e/
2E\	1G	2B\	2g/
2E\	.	2B\	2g/
=119	=119	=119	=119
2F\	2c\	2A/	2a/
2D\	2F/	2A/	1a
1AA	1c	1e	.
.	.	.	2a/
=120.	=120.	=120.	=120.
2r	2r	1A	1a
2FF/	1c	.	.
2C/	.	2r	2e/
2AA/	2c\	[2e\	[2cc\
=121	=121	=121	=121
1E	2.G/	2e\]	2cc\]
.	.	1e	2b\
.	4A/	.	.
2E\	2B\	.	2g/
2F\	[2A/	2c\	[2a/
=122.	=122.	=122.	=122.
1D	2A/]	2d\	4a/]
.	.	.	4f/
.	1d	2B\	1f
2D\	.	2A/	.
2E\	2B\	2G/	2g/
=123	=123	=123	=123
2C/	2c\	1r	2e/
2D\	2A/	.	2.f/
2.BB/	[1B	[1d	.
.	.	.	4d/
.	.	.	[2d/
4GG/	.	.	.
=124.	=124.	=124.	=124.
1GG	2B\]	1d]	2d/]
.	4A/	.	1g
.	4G/	.	.
1D	1A	1d	.
.	.	.	2f#i/
=125	=125	=125	=125
1GG	2r	2r	1g
.	2G/	2B\	.
2r	1A	2c\	2r
2D\	.	2d\	2f/
=126.	=126.	=126.	=126.
2E\	1G	2B\	2g/
2C/	.	2c\	2e/
1D	2r	2A/	2f/
.	2F/	2B\	2d/
=127	=127	=127	=127
2C/	2G/	2c\	2e/
2D\	2F/	2A/	2f/
2BB/	1G	2B\	2d/
[2C/	.	2G/	2e/
=128.	=128.	=128.	=128.
2C/]	2r	2A/	2c/
2GG/	1G	2B\	2d/
2C/	.	2E/	2e/
2AA/	[2A/	[2e\	2c/
=129	=129	=129	=129
2C/	2A/]	2e\]	2e/
2D\	2A/	2.d\	2f/
1GG	2B\	.	2.g/
.	.	4c\	.
.	[2G/	4B\	.
.	.	4A/	4f/
=130.	=130.	=130.	=130.
0AA	2G/]	0A	4e/
.	.	.	4d/
.	2F/	.	1d
.	1E	.	.
.	.	.	2c#i/
=131	=131	=131	=131
0Dl	0Dl	0Al	0dl
==	==	==	==
*-	*-	*-	*-
!!!RDF**kern: l=long note in original notation
!!!RDF**kern: i=editorial accidental
!!!ENC:	Chris Gage 06-11-2013
!!!END:	2013/08/05/
!!!EED:	Jesse Rodin
!!!EEV:	2013/08/05/
!!!ONB:	Translated from MusicXML and edited on 2013/08/05/ by Craig Sapp
!!muse2ps: T^@{OPR}^u^@{ONM}{. }@{OTL}^C^@{COM}^i2I150v85,85,85,150Q16
